X:303
T:Tulla Polka
R:polka
M:2/4
L:1/8
K:Gmaj
D>E DC|B,D GA|Bd/B/ AB/A/|GE EG|
D>E DC|B,D GA|Bd/B/ AB/A/|1G2 GE:|2G2 GA||
|Bd dB|ce ed|Bd/B/ AB/A/|GE EG|
Bd dB|ce e>f|g/f/e fd|e2 ef|
ge fd|ed BA|Bd/B/ AB/A/|GE EG|
D>E DC|B,D GA|Bd/B/ AB/A/|G4 G2||

